X: 1
T: No_10_Song_of_the_Grasshopper_Dance.krn
N: Derived from No_10_Song_of_the_Grasshopper_Dance.krn
%%abc-version 2.0
%%abcx-abcm2ps-target-version 5.9.1 (29 Sep 2008)
%%abc-creator hum2abc beta
%%abcx-conversion-date 2019/03/15 08:35:00
%%humdrum-veritas 2422659632
%%humdrum-veritas-data 2152708177
%%linebreak <none>
%%barnumbers 0
L: 1/8
M: 2/4
K: A clef=bass
[K:clef=bass][M:2/4]z2z3/ ^D/ | 
(^D/B,3/) B,B, | 
(B,/(F,3/) F,) z/ ^D/ | 
[M:3/4]^D/C3/ B,/G,/B, B,A,/ z/ | 
[M:2/4]^DB, B,/F,/A, | 
A,A,A,2 | 
(A,/F,3/) F, z/ C/ | 
[M:3/8](3CB,C B, | 
[M:3/4]B,3/B,/ (A,/F,3/)- F, z/ C/ | 
(C/B,3/)B,2B,A, | 
[M:2/4]CB, B,/F,/A, | 
A,A,A,2 | 
(A,/F,3/)- F, z/ C/ | 
[M:3/8](3CB,C B, | 
[M:3/4]B,3/B,/ (A,/F,3/)- F, z/ C/ | 
(C/B,3/)B,2B,A, | 
[M:2/4]CB, B,/F,/A, | 
A,A,A,2 | 
(A,/F,3/)- F, z/ E/ | 
[M:3/8](3EDE E | 
[M:3/4]B,2(B,/F,3/)- F, z/ ^D/ | 
B,B,B,2B,A,/ z/ | 
[M:2/4]^DB, B,/A,/F, | 
A,A,A,2 | 
(A,/F,3/)- F, z/ C/ | 
[M:3/8](3CB,C B, | 
[M:3/4]B,3/B,/ (A,/F,3/)- F, z/ C/ | 
B,B,B,2B,A, | 
[M:2/4]CB, B,/F,/A, | 
A,A,A,2 | 
(A,/F,3/)- F, z |]  



